X:1515
T:Shearing the Sheep
R:reel
N:"collected from McFadden"
B:"O'Neill's Dance Music of Ireland, 1515"
T: ag .bearra.d na caoire.
Z:transcribed by John B. Walsh, walsh@math.ubc.ca 8/23/96
M:C|
L:1/8
K:A
EAAB ABcB|ABcA BF F2|EAAB ABce|faec d2 (cB)|
A3B ABcB|ABcA BF F2|EA ((3ABA) ABce|faec HA2 cd|
e2 (ae) feaf|eaec d2 (cd)|e2 (ae) fefb|afec d2 (cd)|
e2 (ae) feaf|eaec d2 (cB)|c2 (cB) cefb|afec dBcA !D.C.!||


